X: 55
T:Aly's 
R:
C:Terry Rasmussen
D:Aly Bain - Lonely Bird, Sliabh Notes, McGuires - 
Z:Naka Ishii
Z:chords added by Alf 
M:3/4
L:1/8
K:F
FG|A3d2 c/A/|G3d cA|F3G FE|DE4F|CF3 A2|
[1,3 B4 AG|FC3 A_A|G4 :|[2,4 B3A GF|DF4E|F4 :|
F2| d3e2f|c4 ef|B3A GF|A6|A3=B ^cA|d4 cB|
A/2c3/2 F2 EF|G4 FG|A3d2 c/A/|G3d cA|F3G FE|
DE4F|CF3 A2| B3A GF|DF4E|F4 :|
